src/assets/outline/Moneys.svg

<svg width="24" height="24" viewBox="0 0 24 24"  xmlns="http://www.w3.org/2000/svg">
<path d="M14.8902 18.22H6.10019C5.58019 18.22 5.09018 18.17 4.65018 18.07C4.42018 18.04 4.14019 17.96 3.85019 17.85C2.52019 17.35 0.950195 16.12 0.950195 13.06V7.90997C0.950195 4.63997 2.83019 2.76001 6.10019 2.76001H14.8902C17.6502 2.76001 19.4302 4.07998 19.9102 6.47998C20.0002 6.91998 20.0402 7.38997 20.0402 7.90997V13.06C20.0402 16.35 18.1702 18.22 14.8902 18.22ZM6.11017 4.28003C3.65017 4.28003 2.46017 5.46999 2.46017 7.92999V13.08C2.46017 14.87 3.09019 15.97 4.38019 16.46C4.58019 16.53 4.7702 16.58 4.9502 16.61C5.3302 16.69 5.70017 16.73 6.11017 16.73H14.9002C17.3602 16.73 18.5502 15.54 18.5502 13.08V7.92999C18.5502 7.50999 18.5202 7.13999 18.4502 6.79999C18.1102 5.09999 16.9502 4.28003 14.9002 4.28003H6.11017Z" />
<path d="M17.8901 21.22H9.10009C8.25009 21.22 7.49008 21.1 6.84008 20.85C5.37008 20.3 4.41007 19.14 4.08007 17.48C4.03007 17.23 4.11009 16.97 4.29009 16.8C4.47009 16.62 4.7301 16.55 4.9801 16.61C5.3101 16.68 5.68009 16.72 6.10009 16.72H14.8901C17.3501 16.72 18.5401 15.53 18.5401 13.07V7.91997C18.5401 7.49997 18.5101 7.12996 18.4401 6.78996C18.3901 6.53996 18.4701 6.28997 18.6401 6.10997C18.8201 5.92997 19.0701 5.84996 19.3201 5.90996C21.7201 6.39996 23.0401 8.17997 23.0401 10.92V16.07C23.0401 19.35 21.1701 21.22 17.8901 21.22ZM5.9201 18.22C6.2401 18.8 6.72009 19.21 7.38009 19.45C7.86009 19.63 8.44007 19.72 9.11007 19.72H17.9001C20.3601 19.72 21.5501 18.53 21.5501 16.07V10.92C21.5501 9.33997 21.0601 8.28997 20.0501 7.73997C20.0501 7.79997 20.0501 7.85997 20.0501 7.91997V13.07C20.0501 16.34 18.1701 18.22 14.9001 18.22H6.11007C6.04007 18.22 5.9801 18.22 5.9201 18.22Z" />
<path d="M10.4999 13.89C8.62988 13.89 7.10986 12.37 7.10986 10.5C7.10986 8.63 8.62988 7.10999 10.4999 7.10999C12.3699 7.10999 13.8899 8.63 13.8899 10.5C13.8899 12.37 12.3699 13.89 10.4999 13.89ZM10.4999 8.60999C9.45988 8.60999 8.60986 9.46 8.60986 10.5C8.60986 11.54 9.45988 12.39 10.4999 12.39C11.5399 12.39 12.3899 11.54 12.3899 10.5C12.3899 9.46 11.5399 8.60999 10.4999 8.60999Z" />
<path d="M4.78027 13.4501C4.37027 13.4501 4.03027 13.1101 4.03027 12.7001V8.30005C4.03027 7.89005 4.37027 7.55005 4.78027 7.55005C5.19027 7.55005 5.53027 7.89005 5.53027 8.30005V12.7001C5.53027 13.1101 5.20027 13.4501 4.78027 13.4501Z" />
<path d="M16.21 13.4501C15.8 13.4501 15.46 13.1101 15.46 12.7001V8.30005C15.46 7.89005 15.8 7.55005 16.21 7.55005C16.62 7.55005 16.96 7.89005 16.96 8.30005V12.7001C16.96 13.1101 16.63 13.4501 16.21 13.4501Z" />
</svg>

<?xml version="1.0" encoding="UTF-8"?>
<svg width="24" height="24" viewBox="0 0 24 24" xmlns="http://www.w3.org/2000/svg">
 <path d="m14.89 18.22h-8.79c-0.52 0-1.01-0.05-1.45-0.15-0.23-0.03-0.50999-0.11-0.79999-0.22-1.33-0.5-2.9-1.73-2.9-4.79v-5.15c0-3.27 1.88-5.15 5.15-5.15h8.79c2.76 0 4.54 1.32 5.02 3.72 0.09 0.44 0.13 0.90999 0.13 1.43v5.15c0 3.29-1.87 5.16-5.15 5.16zm-8.78-13.94c-2.46 0-3.65 1.19-3.65 3.65v5.15c0 1.79 0.63002 2.89 1.92 3.38 0.2 0.07 0.39001 0.12 0.57001 0.15 0.38 0.08 0.74997 0.12 1.16 0.12h8.79c2.46 0 3.65-1.19 3.65-3.65v-5.15c0-0.42-0.03-0.79-0.1-1.13-0.34-1.7-1.5-2.52-3.55-2.52h-8.79z"/>
 <path d="m17.89 21.22h-8.79c-0.85 0-1.61-0.12-2.26-0.37-1.47-0.55-2.43-1.71-2.76-3.37-0.05-0.25 0.03002-0.51 0.21002-0.68 0.18-0.18 0.44001-0.25 0.69001-0.19 0.33 0.07 0.69999 0.11 1.12 0.11h8.79c2.46 0 3.65-1.19 3.65-3.65v-5.15c0-0.42-0.03-0.79001-0.1-1.13-0.05-0.25 0.03-0.49999 0.2-0.67999 0.18-0.18 0.43-0.26001 0.68-0.20001 2.4 0.49 3.72 2.27 3.72 5.01v5.15c0 3.28-1.87 5.15-5.15 5.15zm-11.97-3c0.32 0.58 0.79999 0.99 1.46 1.23 0.48 0.18 1.06 0.27 1.73 0.27h8.79c2.46 0 3.65-1.19 3.65-3.65v-5.15c0-1.58-0.49-2.63-1.5-3.18v0.18 5.15c0 3.27-1.88 5.15-5.15 5.15h-8.79-0.18997z"/>
 <path d="m10.5 13.89c-1.87 0-3.39-1.52-3.39-3.39s1.52-3.39 3.39-3.39c1.87 0 3.39 1.52 3.39 3.39s-1.52 3.39-3.39 3.39zm0-5.28c-1.04 0-1.89 0.85001-1.89 1.89s0.85002 1.89 1.89 1.89c1.04 0 1.89-0.85 1.89-1.89s-0.85-1.89-1.89-1.89z"/>
 <path d="m4.7803 13.45c-0.41 0-0.75-0.34-0.75-0.75v-4.4c0-0.41 0.34-0.75 0.75-0.75s0.75 0.34 0.75 0.75v4.4c0 0.41-0.33 0.75-0.75 0.75z"/>
 <path d="m16.21 13.45c-0.41 0-0.75-0.34-0.75-0.75v-4.4c0-0.41 0.34-0.75 0.75-0.75s0.75 0.34 0.75 0.75v4.4c0 0.41-0.33 0.75-0.75 0.75z"/>
</svg>
